**harm	**harte	**timestamp	**phrase	**leadinstrument	**kern
*M4/4	*M4/4	*	*	*	*
*D:	*D:	*	*	*	*D:
1r;	N	0	.	r	1r;
=1	=1	=1	=1	=1	=1
*>A_intro	*>A_intro	*>A_intro	*>A_intro	*>A_intro	*>A_intro
4I	D:5	0.418	newline	guitar	4D 4f# 4a
4V	A:5	0.85	.	guitar	4A 4cc# 4ee
2vi	B:5	1.283	.	guitar	2B 2dd 2ff#
=2	=2	=2	=2	=2	=2
4IV	G:5	2.148	.	guitar	4G 4b 4dd
4V	A:5	2.58	.	guitar	4A 4cc# 4ee
2I	D:5	3.013	.	guitar	2D 2f# 2a
=3	=3	=3	=3	=3	=3
4I	D:5	3.878	newline	guitar	4D 4f# 4a
4V	A:5	4.328	.	guitar	4A 4cc# 4ee
2vi	B:5	4.778	.	guitar	2B 2dd 2ff#
=4	=4	=4	=4	=4	=4
4IV	G:5	5.677	.	guitar	4G 4b 4dd
4V	A:5	6.127	.	guitar	4A 4cc# 4ee
2I	D:5	6.577	.	guitar	2D 2f# 2a
=5	=5	=5	=5	=5	=5
*>A2_verse	*>A2_verse	*>A2_verse	*>A2_verse	*>A2_verse	*>A2_verse
4I	D:5	7.477	newline	voice	4D 4f# 4a
4V	A:5	7.941	.	voice	4A 4cc# 4ee
2vi	B:5	8.406	.	voice	2B 2dd 2ff#
=6	=6	=6	=6	=6	=6
4IV	G:5	9.335	.	voice	4G 4b 4dd
4V	A:5	9.8	.	voice	4A 4cc# 4ee
2I	D:5	10.265	.	voice	2D 2f# 2a
=7	=7	=7	=7	=7	=7
4I	D:5	11.194	.	voice	4D 4f# 4a
4V	A:5	11.658	.	voice	4A 4cc# 4ee
2vi	B:5	12.123	.	voice	2B 2dd 2ff#
=8	=8	=8	=8	=8	=8
4IV	G:5	13.052	.	voice	4G 4b 4dd
4V	A:5	13.517	.	voice	4A 4cc# 4ee
2I	D:5	13.982	.	voice	2D 2f# 2a
=9	=9	=9	=9	=9	=9
4I	D:5	14.911	.	voice	4D 4f# 4a
4V	A:5	15.375	.	voice	4A 4cc# 4ee
2vi	B:5	15.84	.	voice	2B 2dd 2ff#
=10	=10	=10	=10	=10	=10
4IV	G:5	16.769	.	voice	4G 4b 4dd
4V	A:5	17.234	.	voice	4A 4cc# 4ee
2I	D:5	17.699	.	voice	2D 2f# 2a
=11	=11	=11	=11	=11	=11
4I	D:5	18.628	.	voice	4D 4f# 4a
4V	A:5	19.092	.	voice	4A 4cc# 4ee
2vi	B:5	19.557	.	voice	2B 2dd 2ff#
=12	=12	=12	=12	=12	=12
4IV	G:5	20.486	.	voice	4G 4b 4dd
4V	A:5	20.951	.	voice	4A 4cc# 4ee
2I	D:5	21.416	.	voice	2D 2f# 2a
=13	=13	=13	=13	=13	=13
4I	D:5	22.345	newline	voice	4D 4f# 4a
4V	A:5	22.797	.	voice	4A 4cc# 4ee
2vi	B:5	23.249	.	voice	2B 2dd 2ff#
=14	=14	=14	=14	=14	=14
4IV	G:5	24.154	.	voice	4G 4b 4dd
4V	A:5	24.606	.	voice	4A 4cc# 4ee
2I	D:5	25.058	.	voice	2D 2f# 2a
=15	=15	=15	=15	=15	=15
4I	D:5	25.963	newline	voice	4D 4f# 4a
4V	A:5	26.407	.	voice	4A 4cc# 4ee
2vi	B:5	26.851	.	voice	2B 2dd 2ff#
=16	=16	=16	=16	=16	=16
4IV	G:5	27.739	.	voice	4G 4b 4dd
4V	A:5	28.183	.	voice	4A 4cc# 4ee
2I	D:5	28.627	.	voice	2D 2f# 2a
=17	=17	=17	=17	=17	=17
4I	D:5	29.514	newline	voice	4D 4f# 4a
4V	A:5	29.969	.	voice	4A 4cc# 4ee
2vi	B:5	30.423	.	voice	2B 2dd 2ff#
=18	=18	=18	=18	=18	=18
4IV	G:5	31.332	.	voice	4G 4b 4dd
4V	A:5	31.786	.	voice	4A 4cc# 4ee
2I	D:5	32.24	.	voice	2D 2f# 2a
=19	=19	=19	=19	=19	=19
1V	A:maj	33.149	.	voice	1A 1cc# 1ee
=20	=20	=20	=20	=20	=20
*>B_chorus	*>B_chorus	*>B_chorus	*>B_chorus	*>B_chorus	*>B_chorus
2Ic	D:maj/5	34.966	newline	voice	2d 2f# 2A
2I	D:maj	35.874	.	voice	2D 2f# 2a
=21	=21	=21	=21	=21	=21
1vi	B:min	36.781	.	voice	1B 1dd 1ff#
=22	=22	=22	=22	=22	=22
2Ic	D:maj/5	38.597	newline	voice	2d 2f# 2A
2I	D:maj	39.509	.	voice	2D 2f# 2a
=23	=23	=23	=23	=23	=23
1vi	B:min	40.422	.	voice	1B 1dd 1ff#
=24	=24	=24	=24	=24	=24
4IV	G:maj	42.247	newline	voice	4G 4b 4dd
4V	A:maj	42.708	.	voice	4A 4cc# 4ee
2I	D:maj	43.17	.	voice	2D 2f# 2a
=25	=25	=25	=25	=25	=25
2vi	B:min	44.093	.	voice	2B 2dd 2ff#
2V	A:maj	45.016	.	voice	2A 2cc# 2ee
=26	=26	=26	=26	=26	=26
*M2/4	*M2/4	*M2/4	*M2/4	*M2/4	*M2/4
2r	N	45.939	.	voice	2r
=27	=27	=27	=27	=27	=27
*>A2_verse	*>A2_verse	*>A2_verse	*>A2_verse	*>A2_verse	*>A2_verse
*M4/4	*M4/4	*M4/4	*M4/4	*M4/4	*M4/4
4I	D:5	46.862	newline	.	4D 4f# 4a
4V	A:5	47.318	.	.	4A 4cc# 4ee
2vi	B:5	47.774	.	.	2B 2dd 2ff#
=28	=28	=28	=28	=28	=28
4IV	G:5	48.686	.	.	4G 4b 4dd
4V	A:5	49.142	.	.	4A 4cc# 4ee
2I	D:5	49.598	.	.	2D 2f# 2a
=29	=29	=29	=29	=29	=29
4I	D:5	50.51	.	.	4D 4f# 4a
4V	A:5	50.966	.	.	4A 4cc# 4ee
2vi	B:5	51.422	.	.	2B 2dd 2ff#
=30	=30	=30	=30	=30	=30
4IV	G:5	52.335	.	.	4G 4b 4dd
4V	A:5	52.791	.	.	4A 4cc# 4ee
2I	D:5	53.247	.	.	2D 2f# 2a
=31	=31	=31	=31	=31	=31
4I	D:5	54.159	.	.	4D 4f# 4a
4V	A:5	54.615	.	.	4A 4cc# 4ee
2vi	B:5	55.071	.	.	2B 2dd 2ff#
=32	=32	=32	=32	=32	=32
4IV	G:5	55.983	.	.	4G 4b 4dd
4V	A:5	56.439	.	.	4A 4cc# 4ee
2I	D:5	56.895	.	.	2D 2f# 2a
=33	=33	=33	=33	=33	=33
4I	D:5	57.807	.	.	4D 4f# 4a
4V	A:5	58.263	.	.	4A 4cc# 4ee
2vi	B:5	58.719	.	.	2B 2dd 2ff#
=34	=34	=34	=34	=34	=34
4IV	G:5	59.632	.	.	4G 4b 4dd
4V	A:5	60.088	.	.	4A 4cc# 4ee
2I	D:5	60.544	.	.	2D 2f# 2a
=35	=35	=35	=35	=35	=35
4I	D:5	61.456	newline	.	4D 4f# 4a
4V	A:5	61.914	.	.	4A 4cc# 4ee
2vi	B:5	62.372	.	.	2B 2dd 2ff#
=36	=36	=36	=36	=36	=36
4IV	G:5	63.288	.	.	4G 4b 4dd
4V	A:5	63.746	.	.	4A 4cc# 4ee
2I	D:5	64.204	.	.	2D 2f# 2a
=37	=37	=37	=37	=37	=37
4I	D:5	65.119	newline	.	4D 4f# 4a
4V	A:5	65.576	.	.	4A 4cc# 4ee
2vi	B:5	66.033	.	.	2B 2dd 2ff#
=38	=38	=38	=38	=38	=38
4IV	G:5	66.946	.	.	4G 4b 4dd
4V	A:5	67.403	.	.	4A 4cc# 4ee
2I	D:5	67.86	.	.	2D 2f# 2a
=39	=39	=39	=39	=39	=39
4I	D:5	68.773	newline	.	4D 4f# 4a
4V	A:5	69.228	.	.	4A 4cc# 4ee
2vi	B:5	69.683	.	.	2B 2dd 2ff#
=40	=40	=40	=40	=40	=40
4IV	G:5	70.593	.	.	4G 4b 4dd
4V	A:5	71.048	.	.	4A 4cc# 4ee
2I	D:5	71.503	.	.	2D 2f# 2a
=41	=41	=41	=41	=41	=41
1V	A:maj	72.413	.	.	1A 1cc# 1ee
=42	=42	=42	=42	=42	=42
*>B2_chorus	*>B2_chorus	*>B2_chorus	*>B2_chorus	*>B2_chorus	*>B2_chorus
2Ic	D:maj/5	74.233	newline	.	2d 2f# 2A
2I	D:maj	75.141	.	.	2D 2f# 2a
=43	=43	=43	=43	=43	=43
1vi	B:min	76.05	.	.	1B 1dd 1ff#
=44	=44	=44	=44	=44	=44
2Ic	D:maj/5	77.867	newline	.	2d 2f# 2A
2I	D:maj	78.79	.	.	2D 2f# 2a
=45	=45	=45	=45	=45	=45
1vi	B:min	79.713	.	.	1B 1dd 1ff#
=46	=46	=46	=46	=46	=46
4IV	G:maj	81.559	newline	.	4G 4b 4dd
4V	A:maj	82.011	.	.	4A 4cc# 4ee
2I	D:maj	82.462	.	.	2D 2f# 2a
=47	=47	=47	=47	=47	=47
2vi	B:min	83.364	.	.	2B 2dd 2ff#
2V	A:maj	84.266	.	.	2A 2cc# 2ee
=48	=48	=48	=48	=48	=48
2Ic	D:maj/5	85.169	newline	.	2d 2f# 2A
2I	D:maj	86.081	.	.	2D 2f# 2a
=49	=49	=49	=49	=49	=49
1vi	B:min	86.994	.	.	1B 1dd 1ff#
=50	=50	=50	=50	=50	=50
4Ic	D:maj/5	88.819	newline	.	4d 4f# 4A
2.I	D:maj	89.278	.	.	2D 2f# 2a
=51	=51	=51	=51	=51	=51
4vi	B:min	90.654	.	.	4B 4dd 4ff#
4Ve	A:maj/2	91.113	.	.	4A 4cc# 4ee
4vi	B:min	91.572	.	.	4B 4dd 4ff#
4Ve	A:maj/2	92.031	.	.	4A 4cc# 4ee
=52	=52	=52	=52	=52	=52
4IV	G:maj	92.49	newline	.	4G 4b 4dd
4V	A:maj	92.949	.	.	4A 4cc# 4ee
2I	D:maj	93.409	.	.	2D 2f# 2a
=53	=53	=53	=53	=53	=53
4IV	G:maj	94.327	.	.	4G 4b 4dd
4V	A:maj	94.787	.	.	4A 4cc# 4ee
2I	D:maj	95.246	.	.	2D 2f# 2a
=54	=54	=54	=54	=54	=54
4IV	G:maj	96.165	newline	.	4G 4b 4dd
4V	A:maj	96.611	.	.	4A 4cc# 4ee
2I	D:maj	97.057	.	.	2D 2f# 2a
=55	=55	=55	=55	=55	=55
2vi	B:min	97.949	.	.	2B 2dd 2ff#
2V	A:maj	98.84	.	.	2A 2cc# 2ee
=56	=56	=56	=56	=56	=56
*>C_bridge	*>C_bridge	*>C_bridge	*>C_bridge	*>C_bridge	*>C_bridge
1IV	G:5	99.732	newline	.	1G 1b 1dd
=57	=57	=57	=57	=57	=57
1IV	G:5	101.558	.	.	1G 1b 1dd
=58	=58	=58	=58	=58	=58
1IV	G:5	103.385	.	.	1G 1b 1dd
=59	=59	=59	=59	=59	=59
1IV	G:5	105.211	.	.	1G 1b 1dd
=60	=60	=60	=60	=60	=60
1IV	G:5	107.037	.	.	1G 1b 1dd
=61	=61	=61	=61	=61	=61
1IV	G:5	108.863	.	.	1G 1b 1dd
=62	=62	=62	=62	=62	=62
1IV	G:5	110.689	.	.	1G 1b 1dd
=63	=63	=63	=63	=63	=63
1IV	G:5	112.515	.	.	1G 1b 1dd
=64	=64	=64	=64	=64	=64
1IV	G:5	114.341	.	.	1G 1b 1dd
=65	=65	=65	=65	=65	=65
1IV	G:5	116.167	.	.	1G 1b 1dd
=66	=66	=66	=66	=66	=66
1IV	G:5	117.994	newline	voice	1G 1b 1dd
=67	=67	=67	=67	=67	=67
1V	A:maj	119.821	.	voice	1A 1cc# 1ee
=68	=68	=68	=68	=68	=68
*>B4_interlude	*>B4_interlude	*>B4_interlude	*>B4_interlude	*>B4_interlude	*>B4_interlude
4VIc	B:maj/5	121.649	newline	rhythm guitar	4b 4dd# 4F#
2.VI	B:maj	122.103	.	rhythm guitar	2B 2dd# 2ff#
=69	=69	=69	=69	=69	=69
4#iv	G#:min	123.467	.	rhythm guitar	4G# 4b 4dd#
4IIIe	F#:maj/2	123.922	.	rhythm guitar	4F# 4a# 4cc#
4#iv	G#:min	124.376	.	rhythm guitar	4G# 4b 4dd#
4IIIe	F#:maj/2	124.831	.	rhythm guitar	4F# 4a# 4cc#
=70	=70	=70	=70	=70	=70
4VIc	B:maj/5	125.285	.	rhythm guitar	4b 4dd# 4F#
2.VI	B:maj	125.74	.	rhythm guitar	2B 2dd# 2ff#
=71	=71	=71	=71	=71	=71
4#iv	G#:min	127.104	.	rhythm guitar	4G# 4b 4dd#
4IIIe	F#:maj/2	127.558	.	rhythm guitar	4F# 4a# 4cc#
4#iv	G#:min	128.013	.	rhythm guitar	4G# 4b 4dd#
4IIIe	F#:maj/2	128.467	.	rhythm guitar	4F# 4a# 4cc#
=72	=72	=72	=72	=72	=72
4VIc	B:maj/5	128.922	.	rhythm guitar	4b 4dd# 4F#
2.VI	B:maj	129.377	.	rhythm guitar	2B 2dd# 2ff#
=73	=73	=73	=73	=73	=73
4#iv	G#:min	130.74	.	rhythm guitar	4G# 4b 4dd#
4IIIe	F#:maj/2	131.195	.	rhythm guitar	4F# 4a# 4cc#
4#iv	G#:min	131.649	.	rhythm guitar	4G# 4b 4dd#
4IIIe	F#:maj/2	132.104	.	rhythm guitar	4F# 4a# 4cc#
=74	=74	=74	=74	=74	=74
4VIc	B:maj/5	132.559	.	rhythm guitar	4b 4dd# 4F#
2.VI	B:maj	133.013	.	rhythm guitar	2B 2dd# 2ff#
=75	=75	=75	=75	=75	=75
4#iv	G#:min	134.377	.	rhythm guitar	4G# 4b 4dd#
4IIIe	F#:maj/2	134.832	.	rhythm guitar	4F# 4a# 4cc#
4#iv	G#:min	135.286	.	rhythm guitar	4G# 4b 4dd#
4IIIe	F#:maj/2	135.741	.	rhythm guitar	4F# 4a# 4cc#
=76	=76	=76	=76	=76	=76
4IV	G:maj	136.195	newline	voice	4G 4b 4dd
4V	A:maj	136.647	.	voice	4A 4cc# 4ee
2I	D:maj	137.098	.	voice	2D 2f# 2a
=77	=77	=77	=77	=77	=77
2vi	B:min	138.001	.	voice	2B 2dd 2ff#
2V	A:maj	138.904	.	voice	2A 2cc# 2ee
=78	=78	=78	=78	=78	=78
*>A3_solo	*>A3_solo	*>A3_solo	*>A3_solo	*>A3_solo	*>A3_solo
4I	D:5	139.807	newline	guitar	4D 4f# 4a
4V	A:5	140.258	.	guitar	4A 4cc# 4ee
2vi	B:5	140.71	.	guitar	2B 2dd 2ff#
=79	=79	=79	=79	=79	=79
4IV	G:5	141.612	.	guitar	4G 4b 4dd
4V	A:5	142.063	.	guitar	4A 4cc# 4ee
2I	D:5	142.515	.	guitar	2D 2f# 2a
=80	=80	=80	=80	=80	=80
4I	D:5	143.417	newline	guitar	4D 4f# 4a
4V	A:5	143.87	.	guitar	4A 4cc# 4ee
2vi	B:5	144.324	.	guitar	2B 2dd 2ff#
=81	=81	=81	=81	=81	=81
4IV	G:5	145.23	.	guitar	4G 4b 4dd
4V	A:5	145.683	.	guitar	4A 4cc# 4ee
2I	D:5	146.137	.	guitar	2D 2f# 2a
=82	=82	=82	=82	=82	=82
4I	D:5	147.043	newline	guitar	4D 4f# 4a
4V	A:5	147.5	.	guitar	4A 4cc# 4ee
2vi	B:5	147.957	.	guitar	2B 2dd 2ff#
=83	=83	=83	=83	=83	=83
4IV	G:5	148.871	.	guitar	4G 4b 4dd
4V	A:5	149.328	.	guitar	4A 4cc# 4ee
2I	D:5	149.784	.	guitar	2D 2f# 2a
=84	=84	=84	=84	=84	=84
4I	D:5	150.698	newline	guitar	4D 4f# 4a
4V	A:5	151.154	.	guitar	4A 4cc# 4ee
2vi	B:5	151.61	.	guitar	2B 2dd 2ff#
=85	=85	=85	=85	=85	=85
4IV	G:5	152.522	.	guitar	4G 4b 4dd
4V	A:5	152.978	.	guitar	4A 4cc# 4ee
2I	D:5	153.434	.	guitar	2D 2f# 2a
=86	=86	=86	=86	=86	=86
1V	A:maj	154.346	.	guitar	1A 1cc# 1ee
=87	=87	=87	=87	=87	=87
*>B3_chorus	*>B3_chorus	*>B3_chorus	*>B3_chorus	*>B3_chorus	*>B3_chorus
2Ic	D:maj/5	156.17	newline	voice	2d 2f# 2A
2I	D:maj	156.852	.	voice	2D 2f# 2a
=88	=88	=88	=88	=88	=88
1vi	B:min	157.534	.	voice	1B 1dd 1ff#
=89	=89	=89	=89	=89	=89
2Ic	D:maj/5	158.898	.	voice	2d 2f# 2A
2I	D:maj	159.58	.	voice	2D 2f# 2a
=90	=90	=90	=90	=90	=90
1vi	B:min	160.263	.	voice	1B 1dd 1ff#
=91	=91	=91	=91	=91	=91
2Ic	D:maj/5	161.627	.	voice	2d 2f# 2A
2I	D:maj	162.309	.	voice	2D 2f# 2a
=92	=92	=92	=92	=92	=92
1vi	B:min	162.991	.	voice	1B 1dd 1ff#
=93	=93	=93	=93	=93	=93
2Ic	D:maj/5	164.355	.	voice	2d 2f# 2A
2I	D:maj	165.037	.	voice	2D 2f# 2a
=94	=94	=94	=94	=94	=94
1vi	B:min	165.719	.	voice	1B 1dd 1ff#
=95	=95	=95	=95	=95	=95
4IV	G:maj	167.083	newline	voice	4G 4b 4dd
4V	A:maj	167.551	.	voice	4A 4cc# 4ee
2I	D:maj	168.019	.	voice	2D 2f# 2a
=96	=96	=96	=96	=96	=96
2vi	B:min	168.954	.	voice	2B 2dd 2ff#
2V	A:maj	169.89	.	voice	2A 2cc# 2ee
=97	=97	=97	=97	=97	=97
4Ic	D:maj/5	170.825	newline	voice	4d 4f# 4A
2.I	D:maj	171.279	.	voice	2D 2f# 2a
=98	=98	=98	=98	=98	=98
4vi	B:min	172.64	.	voice	4B 4dd 4ff#
4Ve	A:maj/2	173.094	.	voice	4A 4cc# 4ee
4vi	B:min	173.548	.	voice	4B 4dd 4ff#
4Ve	A:maj/2	174.001	.	voice	4A 4cc# 4ee
=99	=99	=99	=99	=99	=99
4Ic	D:maj/5	174.455	.	voice	4d 4f# 4A
2.I	D:maj	174.909	.	voice	2D 2f# 2a
=100	=100	=100	=100	=100	=100
4vi	B:min	176.27	.	voice	4B 4dd 4ff#
4Ve	A:maj/2	176.724	.	voice	4A 4cc# 4ee
4vi	B:min	177.178	.	voice	4B 4dd 4ff#
4Ve	A:maj/2	177.632	.	voice	4A 4cc# 4ee
=101	=101	=101	=101	=101	=101
4Ic	D:maj/5	178.086	.	voice	4d 4f# 4A
2.I	D:maj	178.539	.	voice	2D 2f# 2a
=102	=102	=102	=102	=102	=102
4vi	B:min	179.901	.	voice	4B 4dd 4ff#
4Ve	A:maj/2	180.355	.	voice	4A 4cc# 4ee
4vi	B:min	180.808	.	voice	4B 4dd 4ff#
4Ve	A:maj/2	181.262	.	voice	4A 4cc# 4ee
=103	=103	=103	=103	=103	=103
*>D_coda	*>D_coda	*>D_coda	*>D_coda	*>D_coda	*>D_coda
4Ic	D:maj/5	181.716	newline	voice	4d 4f# 4A
2.I	D:maj	182.165	.	voice	2D 2f# 2a
=104	=104	=104	=104	=104	=104
4Ic	D:maj/5	183.514	.	voice	4d 4f# 4A
4I	D:maj	183.963	.	voice	4D 4f# 4a
4IV	G:maj	184.413	.	voice	4G 4b 4dd
4I	D:maj	184.862	.	voice	4D 4f# 4a
=105	=105	=105	=105	=105	=105
1I	D:maj	185.311	.	voice	1D 1f# 1a
1r;	N	192.502	.	r	1r;
1r;	N	196.503	.	r	1r;
*-	*-	*-	*-	*-	*-
!!!OTL: Jessie's Girl
!!!COC: Rick Springfield
!!!BillboardChartDate: 1981/04/11, 1981/08/22
!!!BillboardPeak: 1, 1
!!!BillboardWeeksOnChart: 32, 32
!!!SampleTargetRank: 60,  6
!!!SampleActualRank: 61,  5
!!!SampleID#: 217, 450
!!!RDF**harmony: **recip + pitch class of root + harmonic quality
!!!RDF**harte: Chris Harte's syntax, used by MIREX
!!!RDF**phrase: newline = linebreak in original McGill transcription
!!!RDF**timestamp: McGill audio timestamp in seconds
!!!RDF**leadinstrument: original McGill primary instrumentation annotation
!!!RDT: 2017/01/12/
!!!ENC: Nathaniel Condit-Schultz
!!!EST: Awating manual error checking and editing.
